X: 3
T: Alla Lopper
R: mazurka
M: 3/4
L: 1/8
K: Gmaj
|:B>c d2 e>d|(3BdB G2- G>A|B>c d2 e>d|(3cdc A2- A>G|
A>B c2 d>e|f>e d2- d>g|f>e d>c A>F|1 G2 G2- G>A:|2 G2 G2- G>g||
|:b>g e2- e>g|b>g d2- d>g|f>e d>c B>A|G>G B>d (3gfg|
b>g e2- e>g|b>g d2- d>g|f>e d>c A>F|1 G2 G2- G>g:|2 G2 G2- G2||

